X:1
T:The Coming of the Lord Draweth Nigh
T:The Coming of the Lord Draweth Nigh
T:David Elijah Dortch
T:Joseph H. Martin, 1893
T:Public Domain Courtesy of the Cyber Hymnal™
T:Public Domain Courtesy of the Cyber Hymnal™
C:David Elijah Dortch
Z:Public Domain
Z:Courtesy of the Cyber Hymnal™
%%score ( 1 2 ) ( 3 4 )
L:1/8
Q:1/4=100
M:4/4
K:Ab
V:1 treble 
V:2 treble 
V:3 bass 
V:4 bass 
V:1
 [CE]2 | [CA][CA][EA][EB] [Ec]2 [Ec]>[DB] | [CA]6 [CE]2 | [CA][EA][EA][GB] [Ac]2 [Ae]>[Ac] | %4
w: 1.~Ye|peo- ple of the Lord bowed with|grief, Who|weep and mourn and long for re-|
w: 2.~In|sor- row are you bear- ing the|cross, Af-|flict- ed, tried, as gold purged of|
w: 3.~When|sins add fears and doubts vex thy|soul, When|tri- als fierce like waves o’er thee|
w: 4.~Press|on, press on with zeal in the|race; Thy|God will give thee strength, give thee|
 [GB]6 E2 | [Ac][Ac][Ac][Ad] [Ae]2 [Ec]>[=EB] | ([F-A]3 [DF-] [FA]2) [DF]2 | %7
w: lief Lift|up your heads; be glad; cease to|sigh, * * The|
w: dross; With|joy en- dure, your hope fix on|high, * * The|
w: roll, Have|faith, for all will end by and|by, * * The|
w: grace; Faint|not, but hear a voice from the|sky, * * The|
 [CE]<[EA] [EA]>[EB] [Ac]2 [GB]>[EB] | [EA]6 ||"^Refrain" [Ae]2 | [Ae]2 [Ac]2 [Ae]2 [Ec]>[=EB] | %11
w: com- ing of the Lord draw- eth|nigh.|||
w: com- ing of the Lord draw- eth|nigh.|Re-|joice in hope, for the|
w: com- ing of the Lord draw- eth|nigh.|||
w: com- ing of the Lord draw- eth|nigh.|||
 [FA]2 [DF]2 [FA]2 [Fd]2 | [Ed]2 [Ec]2 [Ed]2 [Ee]>[Ec] | [EB]2 [FB]2 [GB]2 [Be]2 | %14
w: |||
w: Lord will come; Re-|joice in hope, for the|Lord will come; Re-|
w: |||
w: |||
 [Ae]2 [Ec]2 [Ae]2 [Ec]>[=EB] | [FA]2 [DF]2 [FA]2 [DF]2 | [CE]2 [EA]2 [EA]2 [EA]>[AB] | %17
w: |||
w: joice in hope, for the|Lord will come, And|take you up to a|
w: |||
w: |||
 [Ac]2 [EB]2 !fermata![EA]2 |] %18
w: |
w: bliss- ful home.|
w: |
w: |
V:2
 x2 | x8 | x8 | x8 | x6 E2 | x8 | x8 | x8 | x6 || x2 | x8 | x8 | x8 | x8 | x8 | x8 | x8 | x6 |] %18
V:3
 [A,,A,]2 | [A,,E,][A,,E,][C,A,][E,G,] A,2 [E,A,]>[E,G,] | [A,,A,]6 [A,,A,]2 | %3
 [A,,A,][A,,C][C,E][E,E] [A,E]2 [A,C]>[A,E] | [E,E]6 [G,E]2 | %5
 [A,E][A,E][A,E][A,B,] [A,C]2 [A,,A,]>[C,G,] | (F,3 A, D2) [D,A,]2 | %7
 [E,A,]<[E,C] [E,C]>[E,D] [E,E]2 [E,D]>[E,D] | [A,,C]6 || [A,C]2 | %10
 [A,C]2 A,2 [A,C]2 [A,,A,]>[C,G,] | [D,F,]2 [D,A,]2 [D,A,]2 [D,A,]2 | %12
 [E,G,]2 [E,A,]2 [E,B,]2 [E,C]>[E,A,] | [E,G,]2 [E,A,]2 [E,B,]2 [G,D]2 | %14
 [A,C]2 A,2 [A,C]2 [A,,A,]>[C,G,] | [D,F,]2 [D,A,]2 [D,A,]2 [D,A,]2 | %16
 [A,,A,]2 [A,,C]2 [C,E]2 [C,E]>[D,F] | [E,E]2 [E,D]2 !fermata![A,,C]2 |] %18
V:4
 x2 | x4 A,2 x2 | x8 | x8 | x8 | x8 | D,6 x2 | x8 | x6 || x2 | x2 A,2 x4 | x8 | x8 | x8 | %14
 x2 A,2 x4 | x8 | x8 | x6 |] %18

